icons/lines/twofour-support.svg

<svg xmlns="http://www.w3.org/2000/svg" width="24" height="24" viewBox="0 0 24 24" fill="none" stroke="currentColor" stroke-width="2" stroke-linecap="round" stroke-linejoin="round" >
  <path d="M18 18.86H17.24C16.44 18.86 15.68 19.17 15.12 19.73L13.41 21.42C12.63 22.19 11.36 22.19 10.58 21.42L8.87 19.73C8.31 19.17 7.54 18.86 6.75 18.86H6C4.34 18.86 3 17.53 3 15.89V4.97998C3 3.33998 4.34 2.01001 6 2.01001H18C19.66 2.01001 21 3.33998 21 4.97998V15.89C21 17.52 19.66 18.86 18 18.86Z" stroke-miterlimit="10"/>
  <path d="M7 9.16003C7 8.23003 7.76 7.46997 8.69 7.46997C9.62 7.46997 10.38 8.23003 10.38 9.16003C10.38 11.04 7.71 11.24 7.12 13.03C7 13.4 7.31 13.77 7.7 13.77H10.38"/>
  <path d="M16.0398 13.76V8.05003C16.0398 7.79003 15.8698 7.55997 15.6198 7.48997C15.3698 7.41997 15.0998 7.51997 14.9598 7.73997C14.2398 8.89997 13.4598 10.22 12.7798 11.38C12.6698 11.57 12.6698 11.82 12.7798 12.01C12.8898 12.2 13.0998 12.3199 13.3298 12.3199H16.9998"/>
  </svg>

<svg xmlns="http://www.w3.org/2000/svg" width="24" height="24" viewBox="0 0 24 24" fill="none" stroke="currentColor" stroke-width="2" stroke-linecap="round" stroke-linejoin="round">
  <path d="M16.04 13.76V8.05a.58.58 0 0 0-1.08-.31 175 175 0 0 0-2.18 3.64.64.64 0 0 0 .55.94H17" />
  <path d="M17.24 18.86a3 3 0 0 0-2.12.87l-1.71 1.69a2 2 0 0 1-2.83 0l-1.71-1.69a3 3 0 0 0-2.12-.87H6a3 3 0 0 1-3-2.97V4.98a3 3 0 0 1 3-2.97h12a3 3 0 0 1 3 2.97v10.91a3 3 0 0 1-3 2.97z" />
  <path d="M7 9.16a1.694 1.694 0 0 1 3.38 0c0 1.88-2.67 2.08-3.26 3.87-.12.37.19.74.58.74h2.68" />
</svg>
